X: 1
T: Granville Market
T: 8x32J 3C (Elinor Vandegrift 1985)
T: 1,2 RHA LHA; CC 1/2 8; CPCP; circle
P: Mary Currie
C: Sandy Nixon
C: from leaflet, arr. T. Traub 5-4-2015
M: 6/8
R: jig
K: A
|: c| "A"A2 a aec|"E"edB "A"c2 A|"D"FAd "A"Eec|"B7"BcA "E"G2 E|"A"A2 a aec|"E"edB "A/F#m"c2 A|"D"FAf "E"efg|"A"aAA A2 :|
|: c|"A"A2 a A2 a|"E"edB "A"c2 A|"D"fdB "A"ecA|"B7"BAF "E"G2 E|"A"A2 a "F#m"A2 a|"E"edB "A"c2 A|"D"FAf "E"efg|"A"aAA A2 :|